X: 16184
T: Green Pantaloons, The
R: reel
M: 4/4
K: Dmajor
|:f2 fd e2 ed|cdef geeg|f2fde2ed|cAGE D2D2:|
|:Addd dfed|cdef gee2|Addd dfed|cAGE D2D2:|

